app/client/src/assets/icons/blueprintjs/16px/header-three.svg

<svg xmlns="http://www.w3.org/2000/svg" width="16" height="16"><path fill-rule="evenodd" d="M1 0C.44 0 0 .45 0 1v10c0 .54.45 1 1 1 .56 0 1-.45 1-1V7h4v4c0 .54.45 1 1 1 .56 0 1-.45 1-1V1c0-.54-.45-1-1-1-.56 0-1 .45-1 1v4H2V1c0-.54-.45-1-1-1Zm13.71 11.72c.41.08.72.3.95.65.23.35.34.77.34 1.27 0 .37-.07.7-.2.97-.14.29-.32.54-.55.74-.23.2-.5.36-.8.47-.3.11-.62.16-.96.16-.41 0-.77-.06-1.08-.19-.31-.12-.56-.31-.77-.54-.21-.24-.36-.52-.47-.85-.11-.33-.16-.7-.17-1.1h1.14c-.01.47.09.86.32 1.17.23.31.57.47 1.02.47.39 0 .71-.12.97-.36s.39-.58.39-1.02c0-.3-.05-.53-.16-.71-.11-.17-.25-.31-.43-.4-.17-.09-.37-.15-.59-.17-.22-.02-.44-.03-.67-.02v-.93c.19.01.38 0 .57-.04.19-.03.36-.1.51-.19.14-.09.26-.22.35-.38.09-.16.14-.36.14-.59 0-.33-.1-.59-.31-.79-.2-.2-.47-.3-.79-.3-.21 0-.38.04-.53.13-.15.09-.27.21-.37.36-.1.15-.17.32-.22.51-.05.19-.07.38-.06.58h-1.15c.01-.38.08-.72.19-1.04.11-.32.27-.6.47-.83.19-.23.44-.42.72-.55.28-.13.6-.2.96-.2.28 0 .55.04.82.13.27.08.51.21.72.38.21.17.38.38.51.64s.19.56.19.9c0 .39-.08.73-.24 1.02-.16.29-.42.5-.76.63v.02Z" clip-rule="evenodd"/></svg>

<svg width="16" height="16" viewBox="0 0 16 16" fill="none" xmlns="http://www.w3.org/2000/svg">
<path fill-rule="evenodd" clip-rule="evenodd" d="M1 0C0.44 0 0 0.45 0 1V11C0 11.54 0.45 12 1 12C1.56 12 2 11.55 2 11V7H6V11C6 11.54 6.45 12 7 12C7.56 12 8 11.55 8 11V1C8 0.46 7.55 0 7 0C6.44 0 6 0.45 6 1V5H2V1C2 0.46 1.55 0 1 0ZM14.71 11.72C15.12 11.8 15.43 12.02 15.66 12.37C15.89 12.72 16 13.14 16 13.64C16 14.01 15.93 14.34 15.8 14.61C15.66 14.9 15.48 15.15 15.25 15.35C15.02 15.55 14.75 15.71 14.45 15.82C14.15 15.93 13.83 15.98 13.49 15.98C13.08 15.98 12.72 15.92 12.41 15.79C12.1 15.67 11.85 15.48 11.64 15.25C11.43 15.01 11.28 14.73 11.17 14.4C11.06 14.07 11.01 13.7 11 13.3H12.14C12.13 13.77 12.23 14.16 12.46 14.47C12.69 14.78 13.03 14.94 13.48 14.94C13.87 14.94 14.19 14.82 14.45 14.58C14.71 14.34 14.84 14 14.84 13.56C14.84 13.26 14.79 13.03 14.68 12.85C14.57 12.68 14.43 12.54 14.25 12.45C14.08 12.36 13.88 12.3 13.66 12.28C13.44 12.26 13.22 12.25 12.99 12.26V11.33C13.18 11.34 13.37 11.33 13.56 11.29C13.75 11.26 13.92 11.19 14.07 11.1C14.21 11.01 14.33 10.88 14.42 10.72C14.51 10.56 14.56 10.36 14.56 10.13C14.56 9.8 14.46 9.54 14.25 9.34C14.05 9.14 13.78 9.04 13.46 9.04C13.25 9.04 13.08 9.08 12.93 9.17C12.78 9.26 12.66 9.38 12.56 9.53C12.46 9.68 12.39 9.85 12.34 10.04C12.29 10.23 12.27 10.42 12.28 10.62H11.13C11.14 10.24 11.21 9.9 11.32 9.58C11.43 9.26 11.59 8.98 11.79 8.75C11.98 8.52 12.23 8.33 12.51 8.2C12.79 8.07 13.11 8 13.47 8C13.75 8 14.02 8.04 14.29 8.13C14.56 8.21 14.8 8.34 15.01 8.51C15.22 8.68 15.39 8.89 15.52 9.15C15.65 9.41 15.71 9.71 15.71 10.05C15.71 10.44 15.63 10.78 15.47 11.07C15.31 11.36 15.05 11.57 14.71 11.7V11.72Z" fill="black"/>
</svg>
